svg/color/knc.svg

<svg width="64" height="65" viewBox="0 0 64 65" fill="none" xmlns="http://www.w3.org/2000/svg">
<g clip-path="url(#clip0_11313_5242)">
<rect y="0.303711" width="64" height="64" rx="32" fill="#31CB9E"/>
<path d="M28.5441 35.3119L47.3601 45.4239C48.0001 45.7439 48.0641 46.5759 47.4881 46.9599L34.7521 56.1119C34.1761 56.5599 33.3441 56.2399 33.1521 55.5359L28.5441 35.3119ZM27.9681 9.51987C28.7361 9.00787 29.7601 9.58387 29.5681 10.4799L24.5121 32.3039L29.5041 54.1279C29.6961 54.9599 28.6721 55.5999 27.9041 55.0879L15.1041 45.9359C14.4641 45.4879 14.0801 44.7199 14.0801 43.9519V20.6559C14.0801 19.8879 14.4641 19.1199 15.1041 18.6719L27.9681 9.51987ZM48.5761 21.9999C49.2161 21.6159 50.1121 22.0639 50.1121 22.8319V41.7759C50.1121 42.4799 49.2801 42.9279 48.5761 42.6079L29.4401 32.3039L48.5761 21.9999ZM33.1521 9.07187C33.2801 8.36787 34.1761 8.11187 34.7521 8.49587L47.4881 17.5839C48.0641 17.9679 48.0001 18.7999 47.3601 19.1199L28.5441 29.2959L33.1521 9.07187Z" fill="white"/>
</g>
<rect x="0.5" y="0.803711" width="63" height="63" rx="31.5" stroke="#070B14" stroke-opacity="0.15"/>
<defs>
<clipPath id="clip0_11313_5242">
<rect y="0.303711" width="64" height="64" rx="32" fill="white"/>
</clipPath>
</defs>
</svg>

<svg xmlns="http://www.w3.org/2000/svg" width="64" height="65" fill="none" viewBox="0 0 64 65"><g clip-path="url(#knc_svg-a)"><rect width="64" height="64" y=".304" fill="#31CB9E" rx="32"/><path fill="#fff" d="M28.544 35.312 47.36 45.424c.64.32.704 1.152.128 1.536l-12.736 9.152c-.576.448-1.408.128-1.6-.576zM27.968 9.52c.768-.512 1.792.064 1.6.96l-5.056 21.824 4.992 21.824c.192.832-.832 1.472-1.6.96l-12.8-9.152a2.46 2.46 0 0 1-1.024-1.984V20.656c0-.768.384-1.536 1.024-1.984zM48.576 22c.64-.384 1.536.064 1.536.832v18.944c0 .704-.832 1.152-1.536.832L29.44 32.304zM33.152 9.072c.128-.704 1.024-.96 1.6-.576l12.736 9.088c.576.384.512 1.216-.128 1.536L28.544 29.296z"/></g><rect width="63" height="63" x=".5" y=".804" stroke="#070B14" stroke-opacity=".15" rx="31.5"/><defs><clipPath id="knc_svg-a"><rect width="64" height="64" y=".304" fill="#fff" rx="32"/></clipPath></defs></svg>
